public/img/time.svg

<?xml version="1.0" encoding="UTF-8"?>
<svg width="18px" height="18px" viewBox="0 0 18 18" version="1.1" xmlns="http://www.w3.org/2000/svg" xmlns:xlink="http://www.w3.org/1999/xlink">
    <!-- Generator: Sketch 47.1 (45422) - http://www.bohemiancoding.com/sketch -->
    <title>Oval</title>
    <desc>Created with Sketch.</desc>
    <defs></defs>
    <g id="Page-1" stroke="none" stroke-width="1" fill="none" fill-rule="evenodd">
        <path d="M10,8 L13,8 L13,10 L8,10 L8,8.5 L8,4 L10,4 L10,8 Z M9,18 C4.02943725,18 0,13.9705627 0,9 C0,4.02943725 4.02943725,0 9,0 C13.9705627,0 18,4.02943725 18,9 C18,13.9705627 13.9705627,18 9,18 Z M9,16 C12.8659932,16 16,12.8659932 16,9 C16,5.13400675 12.8659932,2 9,2 C5.13400675,2 2,5.13400675 2,9 C2,12.8659932 5.13400675,16 9,16 Z" id="Oval" fill="#FFFFFF"></path>
    </g>
</svg>

<svg width="18" height="18" viewBox="0 0 18 18" xmlns="http://www.w3.org/2000/svg"><title>Oval</title><path d="M10 8h3v2H8V4h2v4zM9 18c-4.97 0-9-4.03-9-9s4.03-9 9-9 9 4.03 9 9-4.03 9-9 9zm0-2c3.866 0 7-3.134 7-7s-3.134-7-7-7-7 3.134-7 7 3.134 7 7 7z" fill="#FFF" fill-rule="evenodd"/></svg>
